X:98
C:Page 48
T:Salt Fish and Dumplins. MBe.98
S:Matthew Betham MS, Towcett Cumbria, 1815
O:England;Cumbria;Towcett
Z:VMP – Hugh Taylor, 2012
M:C
L:1/8
Q:1/2=100
R:.Reel
N:Someone has written in a different hand “Salt Fish” above the title, presumably to clarify.
K:G
B/A/|G3 A B3 c|d3 f dBAG|c3 e dcBG|FGAB A3 B|
cBcd efge|dBAG {G} F2 ED|GBAc BdAc|B2 G2 G3:|
|:ge|dBGB d3 e|dBGB d2 cB|cBcd efga|f2 d2 d2 cB|
cBcd efge|dBAG {G} F2 ED|GBAc BdAc|B2 G2 G3:|

